themes/default/assets/images/icons/mid/digital-marketing.svg

<?xml version="1.0" encoding="UTF-8"?>
<svg width="100px" height="75px" viewBox="0 0 100 75" version="1.1" xmlns="http://www.w3.org/2000/svg" xmlns:xlink="http://www.w3.org/1999/xlink">
    <!-- Generator: sketchtool 59 (101010) - https://sketch.com -->
    <title>1129D27C-47BD-4322-9321-7D80754B6795</title>
    <desc>Created with sketchtool.</desc>
    <g id="Page-1" stroke="none" stroke-width="1" fill="none" fill-rule="evenodd">
        <g id="Icons" transform="translate(-374.000000, -3360.000000)" fill-rule="nonzero">
            <g id="mid-icon-digitalmarketing" transform="translate(374.000000, 3360.000000)">
                <path d="M65.19,61.34 L13.42,61.34 C13.1517947,61.3077704 12.8889801,61.432743 12.7446963,61.6611178 C12.6004126,61.8894926 12.6004126,62.1805074 12.7446963,62.4088822 C12.8889801,62.637257 13.1517947,62.7622296 13.42,62.73 L65.19,62.73 C65.4582053,62.7622296 65.7210199,62.637257 65.8653037,62.4088822 C66.0095874,62.1805074 66.0095874,61.8894926 65.8653037,61.6611178 C65.7210199,61.432743 65.4582053,61.3077704 65.19,61.34 L65.19,61.34 Z" id="Path" fill="#A8C5DD"></path>
                <path d="M96.54,-1.51909669e-05 L3.46,-1.51909669e-05 C1.56237511,-0.0055720601 0.0164929764,1.52243861 0,3.42 L0,71.58 C0.0164929764,73.4775614 1.56237511,75.0055721 3.46,75.0000152 L96.54,75.0000152 C98.4376249,75.0055721 99.983507,73.4775614 100,71.58 L100,3.42 C99.983507,1.52243861 98.4376249,-0.0055720601 96.54,-1.51909669e-05 L96.54,-1.51909669e-05 Z M3.46,1.39 L96.54,1.39 C97.0807508,1.37377012 97.6050103,1.57729696 97.9931619,1.95414321 C98.3813136,2.33098946 98.6000002,2.8490058 98.6000002,3.39 L98.6000002,12.24 L92.44,12.24 C92.1717947,12.2077704 91.9089801,12.332743 91.7646963,12.5611178 C91.6204126,12.7894926 91.6204126,13.0805074 91.7646963,13.3088822 C91.9089801,13.537257 92.1717947,13.6622296 92.44,13.63 L98.6000002,13.63 L98.6000002,24.54 L33,24.54 C32.7317947,24.5077704 32.4689801,24.632743 32.3246963,24.8611178 C32.1804126,25.0894926 32.1804126,25.3805074 32.3246963,25.6088822 C32.4689801,25.837257 32.7317947,25.9622296 33,25.93 L98.6000002,25.93 L98.6000002,36.8 L52.69,36.8 C52.3034007,36.8 51.99,37.1134007 51.99,37.5 C51.99,37.8865993 52.3034007,38.2 52.69,38.2 L98.6000002,38.2 L98.6000002,49.07 L1.6,49.07 C1.54043889,49.0597368 1.47956111,49.0597368 1.42,49.07 L1.42,38.07 C1.47956111,38.0802632 1.54043889,38.0802632 1.6,38.07 L46.2,38.07 C46.5865993,38.07 46.9,37.7565993 46.9,37.37 C46.9,36.9834007 46.5865993,36.67 46.2,36.67 L1.58,36.67 C1.52043889,36.6597368 1.45956111,36.6597368 1.39976082,36.67 L1.39976082,25.67 C1.45956111,25.6802632 1.52043889,25.6802632 1.58,25.67 L26.48,25.67 C26.7482053,25.7022296 27.0110199,25.577257 27.1553037,25.3488822 C27.2995874,25.1205074 27.2995874,24.8294926 27.1553037,24.6011178 C27.0110199,24.372743 26.7482053,24.2477704 26.48,24.28 L1.58,24.28 C1.52012199,24.274589 1.45987801,24.274589 1.39976082,24.28 L1.39976082,13.28 C1.45956111,13.2902632 1.52043889,13.2902632 1.58,13.28 L85.66,13.28 C85.9282053,13.3122296 86.1910199,13.187257 86.3353037,12.9588822 C86.4795874,12.7305074 86.4795874,12.4394926 86.3353037,12.2111178 C86.1910199,11.982743 85.9282053,11.8577704 85.66,11.89 L1.58,11.89 C1.52012199,11.884589 1.45987801,11.884589 1.39976082,11.89 L1.39976082,3.42 C1.3915585,2.87382028 1.60688238,2.34795421 1.99595857,1.96454417 C2.38503477,1.58113413 2.91400288,1.37354742 3.46,1.39 Z M96.54,73.61 L3.46,73.61 C2.91924925,73.6262299 2.3949897,73.422703 2.00683807,73.0458568 C1.61868643,72.6690105 1.3999998,72.1509942 1.3999998,71.61 L1.3999998,62.7 C1.45987801,62.705411 1.52012199,62.705411 1.58,62.7 L6.65,62.7 C6.91820532,62.7322296 7.18101992,62.607257 7.32530366,62.3788822 C7.4695874,62.1505074 7.4695874,61.8594926 7.32530366,61.6311178 C7.18101992,61.402743 6.91820532,61.2777704 6.65,61.31 L1.58,61.31 C1.52043889,61.2997368 1.45956111,61.2997368 1.3999998,61.31 L1.3999998,50.31 C1.45987801,50.315411 1.52012199,50.315411 1.58,50.31 L98.58,50.31 L98.58,61.34 L73,61.34 C72.7317947,61.3077704 72.4689801,61.432743 72.3246963,61.6611178 C72.1804126,61.8894926 72.1804126,62.1805074 72.3246963,62.4088822 C72.4689801,62.637257 72.7317947,62.7622296 73,62.73 L98.6002392,62.73 L98.6002392,71.58 C98.6084415,72.1261797 98.3931176,72.6520458 98.0040414,73.0354558 C97.6149652,73.4188659 97.0859971,73.6264526 96.54,73.61 Z" id="Shape" fill="#A8C5DD"></path>
                <path d="M9.8,59.4200023 C9.43211393,59.4209396 9.12627646,59.1369477 9.1,58.77 C9.1,58.3 9.1,57.77 9.03,57.17 C8.71,48.29 9.76,27.37 26.25,24.79 C26.5040244,24.7335322 26.768407,24.8226383 26.9364272,25.0213497 C27.1044474,25.2200611 27.1483702,25.4955767 27.0504657,25.7366819 C26.9525612,25.9777871 26.7289904,26.1446828 26.47,26.17 C11.09,28.58 10.12,48.61 10.47,57.12 C10.47,57.7 10.47,58.23 10.54,58.69 C10.5508887,58.8747262 10.4871225,59.0560847 10.3630213,59.1933481 C10.2389202,59.3306115 10.0648855,59.4122751 9.88,59.4200023 L9.8,59.4200023 Z" id="Path" fill="#032663"></path>
                <path d="M47.86,35.11 C47.6034737,35.1108166 47.366456,34.9731934 47.24,34.75 C44.4181198,29.4580485 38.9933646,26.0675765 33,25.85 C32.6170916,25.8232645 32.327134,25.4931589 32.35,25.11 C32.3602312,24.9250348 32.4444075,24.7519524 32.5835875,24.6296997 C32.7227675,24.507447 32.9052598,24.4462935 33.09,24.46 C39.5817113,24.6916775 45.4597192,28.3601945 48.52,34.09 C48.60774,34.2528092 48.6264473,34.4440264 48.5719251,34.6207535 C48.5174029,34.7974806 48.3942159,34.9449219 48.23,35.03 C48.1175551,35.0933659 47.9885786,35.1212527 47.86,35.11 Z" id="Path" fill="#032663"></path>
                <path d="M65.81,62.84 L65.69,62.84 C53.37,60.62 50,46.65 49.07,40.75 C49.0413223,40.5682063 49.0864593,40.3824894 49.1953763,40.234137 C49.3042932,40.0857846 49.4679633,39.987092 49.65,39.96 C50.0308979,39.8999943 50.3885955,40.1593251 50.45,40.54 C51.3,46.15 54.51,59.41 65.93,61.46 C66.1765133,61.4814359 66.392865,61.6327568 66.4975575,61.8569615 C66.6022501,62.0811662 66.5793782,62.3441927 66.4375575,62.5469615 C66.2957368,62.7497303 66.0565133,62.8614359 65.81,62.84 L65.81,62.84 Z" id="Path" fill="#032663"></path>
                <path d="M72.45,62.73 C72.071685,62.7769442 71.7269443,62.508315 71.6800001,62.13 C71.6330559,61.751685 71.901685,61.4069442 72.28,61.36 C78.78,59.74 83.4,52.85 86,40.9 C87.641617,32.6715439 88.3826482,24.2888372 88.21,15.9 C88.21498,15.5176594 88.5179577,15.2058998 88.9,15.19 L88.9,15.19 C89.2827275,15.19 89.5945325,15.4973115 89.6,15.88 C89.74,25.88 88.93,58.61 72.6,62.69 C72.5522832,62.7107638 72.5017198,62.7242474 72.45,62.73 Z" id="Path" fill="#032663"></path>
                <path d="M10,65.84 C7.87504251,65.828954 6.16085465,64.0983604 6.17001208,61.9733941 C6.17924313,59.8484278 7.90834229,58.1327325 10.0333158,58.1400515 C12.1582893,58.1474175 13.8754907,59.8750209 13.8700131,62 C13.8535219,64.125617 12.1256809,65.84 10,65.84 L10,65.84 Z M10,59.53 C8.63717204,59.5355176 7.53633432,60.6438055 7.53999981,62.0066397 C7.54368364,63.3694739 8.65048195,64.4718093 10.0133198,64.4699798 C11.3761577,64.4681458 12.48,63.3628391 12.48,62 C12.4690588,60.6365172 11.3635159,59.5354321 10,59.53 Z" id="Shape" fill="#2969F6"></path>
                <path d="M29.69,29.34 C27.5718284,29.3069855 25.8782818,27.5689379 25.9002062,25.4506225 C25.9221306,23.3323071 27.6512879,21.6296842 29.7696891,21.6404665 C31.8880902,21.6513516 33.5997427,23.3715711 33.6,25.49 C33.5920742,26.5190496 33.1756688,27.5028001 32.4423948,28.2248217 C31.7091209,28.9468434 30.7190492,29.3479873 29.69,29.34 L29.69,29.34 Z M29.69,23.01 C28.3257576,23.0320068 27.2355299,24.1518955 27.2501422,25.5162372 C27.2647546,26.8805789 28.378718,27.9768603 29.7431188,27.9696781 C31.1075196,27.9624251 32.2098225,26.8544199 32.21,25.49 C32.2073622,24.8252139 31.9400545,24.1888546 31.4671697,23.7215993 C30.9942849,23.2543441 30.35477,22.9946764 29.69,23 L29.69,23.01 Z" id="Shape" fill="#2969F6"></path>
                <path d="M49.41,41.22 C47.2923092,41.1115362 45.6470302,39.3348582 45.7012798,37.2150857 C45.7555295,35.0953132 47.4895334,33.4051184 49.61,33.4051184 C51.7304666,33.4051184 53.4644705,35.0953132 53.5187202,37.2150857 C53.5729698,39.3348582 51.9276908,41.1115362 49.81,41.22 L49.41,41.22 Z M49.41,34.89 C48.0292881,34.89 46.91,36.0092881 46.91,37.39 C46.91,38.7707119 48.0292881,39.89 49.41,39.89 L49.67,39.89 C50.9476908,39.7809758 51.9294514,38.7123337 51.93,37.43 C51.9407985,36.756573 51.6794215,36.1072761 51.2050617,35.6291514 C50.7307018,35.1510268 50.0834913,34.8845253 49.41,34.89 L49.41,34.89 Z" id="Shape" fill="#2969F6"></path>
                <path d="M69.13,65.5700117 C67.1998389,65.5731146 65.5561863,64.1673031 65.26,62.26 C65.2500538,62.0801374 65.2500538,61.8998626 65.26,61.72 C65.2356399,60.13241 66.1737662,58.687727 67.6339725,58.0641622 C69.0941788,57.4405974 70.7864851,57.7619835 71.9164328,58.8774447 C73.0463805,59.9929059 73.3895751,61.6809246 72.7849028,63.149055 C72.1802305,64.6171854 70.7477722,65.5738739 69.16,65.5700117 L69.13,65.5700117 Z M69.13,59.24 C68.4669524,59.2346744 67.8289482,59.4929725 67.3563519,59.9580673 C66.8837556,60.4231621 66.6152832,61.0569521 66.61,61.72 C66.61,61.83 66.61,61.95 66.61,62.06 C66.7710766,63.4034178 67.9643035,64.379871 69.3130345,64.2719738 C70.6617655,64.1640767 71.6845795,63.0103425 71.6300302,61.6584027 C71.575481,60.3064628 70.4630395,59.2388837 69.11,59.24 L69.13,59.24 Z" id="Shape" fill="#2969F6"></path>
                <path d="M88.85,16.46 C86.7318284,16.4269855 85.0382818,14.6889379 85.0602062,12.5706225 C85.0821306,10.4523071 86.8112879,8.74968419 88.9296891,8.76046649 C91.0480902,8.77135162 92.7597427,10.4915711 92.76,12.61 C92.7520742,13.6390496 92.3356688,14.6228001 91.6023948,15.3448217 C90.8691209,16.0668434 89.8790492,16.4679873 88.85,16.46 L88.85,16.46 Z M88.85,10.13 C87.4871811,10.1574818 86.4019923,11.2796884 86.4202218,12.6426625 C86.4384514,14.0056366 87.5532653,15.0984186 88.9163317,15.0894421 C90.2793981,15.0804657 91.3797229,13.973096 91.38,12.61 C91.3747296,11.9452018 91.104882,11.3098819 90.630116,10.8444986 C90.15535,10.3791153 89.5147709,10.1220013 88.85,10.13 L88.85,10.13 Z" id="Shape" fill="#2969F6"></path>
            </g>
        </g>
    </g>
</svg>

<svg width="100" height="75" xmlns="http://www.w3.org/2000/svg"><g fill-rule="nonzero" fill="none"><path d="M65.19 61.34H13.42a.7.7 0 100 1.39h51.77a.7.7 0 100-1.39z" fill="#A8C5DD"/><path d="M96.54 0H3.46A3.45 3.45 0 000 3.42v68.16A3.45 3.45 0 003.46 75h93.08a3.45 3.45 0 003.46-3.42V3.42A3.45 3.45 0 0096.54 0zM3.46 1.39h93.08a2 2 0 012.06 2v8.85h-6.16a.7.7 0 100 1.39h6.16v10.91H33a.7.7 0 100 1.39h65.6V36.8H52.69a.7.7 0 000 1.4H98.6v10.87h-97a.53.53 0 00-.18 0v-11c.06.01.12.01.18 0h44.6a.7.7 0 000-1.4H1.58a.531.531 0 00-.18 0v-11c.06.01.12.01.18 0h24.9a.7.7 0 100-1.39H1.58a1.003 1.003 0 00-.18 0v-11c.06.01.12.01.18 0h84.08a.7.7 0 100-1.39H1.58a1.003 1.003 0 00-.18 0V3.42a2.001 2.001 0 012.06-2.03zm93.08 72.22H3.46a2 2 0 01-2.06-2V62.7a1 1 0 00.18 0h5.07a.7.7 0 100-1.39H1.58a.53.53 0 00-.18 0v-11a1 1 0 00.18 0h97v11.03H73a.7.7 0 100 1.39h25.6v8.85a2.001 2.001 0 01-2.06 2.03z" fill="#A8C5DD"/><path d="M9.8 59.42a.7.7 0 01-.7-.65c0-.47 0-1-.07-1.6-.32-8.88.73-29.8 17.22-32.38a.7.7 0 11.22 1.38c-15.38 2.41-16.35 22.44-16 30.95 0 .58 0 1.11.07 1.57a.69.69 0 01-.66.73H9.8zM47.86 35.11a.71.71 0 01-.62-.36A16.83 16.83 0 0033 25.85a.7.7 0 01-.416-1.22.69.69 0 01.506-.17 18.23 18.23 0 0115.43 9.63.69.69 0 01-.29.94.64.64 0 01-.37.08zM65.81 62.84h-.12C53.37 60.62 50 46.65 49.07 40.75a.69.69 0 01.58-.79.7.7 0 01.8.58c.85 5.61 4.06 18.87 15.48 20.92a.693.693 0 11-.12 1.38zM72.45 62.73a.69.69 0 01-.17-1.37C78.78 59.74 83.4 52.85 86 40.9a115.62 115.62 0 002.21-25 .72.72 0 01.69-.71.7.7 0 01.7.69c.14 10-.67 42.73-17 46.81a.52.52 0 01-.15.04z" fill="#032663"/><path d="M10 65.84A3.85 3.85 0 1113.87 62 3.87 3.87 0 0110 65.84zm0-6.31A2.47 2.47 0 1012.48 62 2.49 2.49 0 0010 59.53zM29.69 29.34a3.85 3.85 0 113.91-3.85 3.88 3.88 0 01-3.91 3.85zm0-6.33a2.48 2.48 0 101.777.712A2.5 2.5 0 0029.69 23v.01zM49.41 41.22a3.91 3.91 0 11.4 0h-.4zm0-6.33a2.5 2.5 0 100 5h.26a2.47 2.47 0 002.26-2.46 2.5 2.5 0 00-2.52-2.54zM69.13 65.57a3.91 3.91 0 01-3.87-3.31 4.89 4.89 0 010-.54 3.91 3.91 0 113.9 3.85h-.03zm0-6.33a2.5 2.5 0 00-2.52 2.48v.34a2.52 2.52 0 102.5-2.82h.02zM88.85 16.46a3.85 3.85 0 113.91-3.85 3.88 3.88 0 01-3.91 3.85zm0-6.33a2.48 2.48 0 102.53 2.48 2.5 2.5 0 00-2.53-2.48z" fill="#2969F6"/></g></svg>
